!!!!SEGMENT: pl-sa--25-a-i-25--004_luna-georgius--vesperae-laudate-pueri.krn
!!!cenid: 17xx:486
!!!COM: Luna, Georgius
!!!COM-rismid: pe41010079
!!!CDT:
!!!CNT:
!!!OPR: Vesperae
!!!OTL: Laudate pueri
!!!OMV: 004
!!!PDT:
!!!AGN: Sacred; Vespers
!!!SMS-siglum: PL-SA
!!!SMS-shelfmark: 25/A I 25
!!!SMS-shelfwork: 001-004 M
!!!SMS-variant:
!!!SMS-altvar:
!!!NIFC-rismid: 1001068245
!!!system-decoration: [(s1,s2)][(s3,s4,s5)][(s6,s7)]s8
!!!AIN: 4 empty 1 tenor 2 violn 1 vox
!!!key:
**kern	**kern	**kern	**kern	**text	**kern	**text	**kern	**text	**kern	**kern
*part8	*part7	*part6	*part5	*part5	*part4	*part4	*part3	*part3	*part2	*part1
*staff8	*staff7	*staff6	*staff5	*staff5	*staff4	*staff4	*staff3	*staff3	*staff2	*staff1
*Iempty	*Ivioln	*Ivioln	*Iempty	*	*Itenor	*	*Ivox	*	*Iempty	*Iempty
*I"Fundamento	*I"Violino 2do	*I"Violino 1mo	*I"Baſso	*	*I"Tenore	*	*I"Canto	*	*I"Clarino 2do ex D	*I"Clarino 1mo ex D
*I'bc	*I'vl 2	*I'vl 1	*I'B	*	*I'T	*	*I'S	*	*I'clno 2 in D	*I'clno 1 in D
*clefF4	*clefG2	*clefG2	*clefF4	*	*clefC4	*	*clefC1	*	*clefG2	*clefG2
*	*	*	*	*	*	*	*	*	*ITrd-1c-2	*ITrd-1c-2
*k[f#c#]	*k[f#c#]	*k[f#c#]	*k[f#c#]	*	*k[f#c#]	*	*k[f#c#]	*	*k[f#c#]	*k[f#c#]
*D:	*D:	*D:	*D:	*	*D:	*	*D:	*	*D:	*D:
*M4/4	*M4/4	*M4/4	*M4/4	*	*M4/4	*	*M4/4	*	*M4/4	*M4/4
*met(c)	*met(c)	*met(c)	*met(c)	*	*met(c)	*	*met(c)	*	*met(c)	*met(c)
=1	=1	=1	=1	=1	=1	=1	=1	=1	=1	=1
*	*^	*	*	*	*	*	*	*	*	*
*2\right	*	*	*2\right	*	*	*	*	*2\right	*	*	*
!LO:SIC:o=Laudate Pueri:v:t=w źródle tekst ten znajduje się po lewej stronie przed kluczem i oznaczeniem metrum	!LO:SIC:o=L:v:t=w źródle 'L' znajduje się po lewej stronie przed kluczem i oznaczeniem metrum	!	!LO:SIC:o=Laudate Pueri:v:t=w źródle tekst ten znajduje się po lewej stronie przed kluczem i oznaczeniem metrum	!	!	!	!	!	!	!LO:SIC:o=Laudate Pueri:v:t=w źródle tekst ten znajduje się po lewej stronie przed kluczem i oznaczeniem metrum	!LO:SIC:o=Laudate Pueri:v:t=w źródle tekst ten znajduje się po lewej stronie przed kluczem i oznaczeniem metrum
!	!	!	!	!LO:SIC:o=L:v:t=w źródle 'L' znajduje się po lewej stronie przed kluczem i oznaczeniem metrum	!	!LO:SIC:o=L:v:t=w źródle 'L' znajduje się po lewej stronie przed kluczem i oznaczeniem metrum	!	!LO:SIC:o=L:v:t=w źródle 'L' znajduje się po lewej stronie przed kluczem i oznaczeniem metrum	!	!	!
!LO:TX:a:t=Allo	!	!	!LO:TX:a:t=allo	!LO:TX:a:i:t=allo	!	!LO:TX:a:i:t=allo	!	!	!	!	!LO:TX:a:t=allo
!	!LO:TX:b:Bi:t=Laudate pueri:rj	!	!	!	!	!	!	!	!	!	!
4D\	4dd\	4ryy	4ff# 4a 4d/	4d\	Lau-	4d\	Lau-	4ff#\	Lau-	4dd\	4ff#\
4A\	4ee/	4cc# 4a\	4ee 4a/	4A\	-da-	4c#\	-da-	4ee\	-da-	4a/	4ee\
8D\L	8dd\	4ryy	8ff# 8a 8d/	8D\	-te	8d\	-te	8ff#\	-te	8dd\	8ff#\
8D\	4ff#\	.	4aa\	8D\	pu-	8f#\	pu-	8aa\	pu-	4ff#\	4aa\
8F#\	.	4ryy	.	8F#\	-e-	8f#\	-e-	8aa\	-e-	.	.
8G\J	8ee\	.	8gg\	8G\	-ri	8e\	-ri	8gg\	-ri	8ee\	8gg\
*	*v	*v	*	*	*	*	*	*	*	*	*
=2	=2	=2	=2	=2	=2	=2	=2	=2	=2	=2
!LO:TX:a:t=P:problem=mixed beam	!	!	!	!	!	!	!	!	!	!
8A\L	4dd\	4ff#\	4A\	Do-	4d\	Do-	4ff#\	Do-	4dd\	4ff#\
8A\	.	.	.	.	.	.	.	.	.	.
8AA/	4cc#\	4ee\	4AA/	-mi-	4c#\	-mi-	4ee\	-mi-	4a/	4ee\
8AA/J	.	.	.	.	.	.	.	.	.	.
!LO:TX:a:t=P:problem=mixed beam	!	!	!	!	!	!	!	!	!	!
16D/LL	16dd\LL	16ff#\LL	4D\	-num	4d\	-num	4ff#\	-num	4dd\	4ff#\
16d\	16dd\	16dd\	.	.	.	.	.	.	.	.
16c#\	16cc#\	16cc#\	.	.	.	.	.	.	.	.
16B\JJ	16b\JJ	16b\JJ	.	.	.	.	.	.	.	.
16A\LL	16a/LL	16a/LL	4r	.	4r	.	4r	.	4r	4r
16G\	16g/	16g/	.	.	.	.	.	.	.	.
16F#\	16f#/	16f#/	.	.	.	.	.	.	.	.
16E\JJ	16e/JJ	16e/JJ	.	.	.	.	.	.	.	.
=3	=3	=3	=3	=3	=3	=3	=3	=3	=3	=3
!	!LO:TX:a:t=P:problem=mixed beam	!	!	!	!	!	!	!	!	!
4D\	8d/L	8d/	4d\	Lau-	4d\	La-	4ff#\	Lau-	4dd\	4ff#\
.	8dd\J	4ff# 4a 4d/	.	.	.	.	.	.	.	.
4AA/	4ee 4cc# 4a\	.	4A\	-da-	4c#\	-da-	4ee\	-da-	4a/	4ee\
.	.	8ee 8a/	.	.	.	.	.	.	.	.
8D\L	8dd\	8ff# 8a 8d/	8D\	-te	8d\	-te	8ff#\	-te	8dd\	8ff#\
8D\	4ff#\	4aa\	8D\	No-	4f#\	No-	4aa\	No-	4ff#\	4aa\
8F#\	.	.	8F#\L	-men	.	.	.	.	.	.
8G\J	8ee\	8gg\	8G\J	.	8e\	-men	8gg\	-men	8ee\	8gg\
=4	=4	=4	=4	=4	=4	=4	=4	=4	=4	=4
!LO:TX:a:t=P:problem=mixed beam	!	!	!	!	!	!	!	!	!	!
8A\L	4dd\	4ff#\	4A\	Do-	4d\	Do-	4ff#\	Do-	4dd\	4ff#\
8A\	.	.	.	.	.	.	.	.	.	.
8AA/	4cc#\	4ee\	4AA/	-mi-	4c#\	-mi-	4ee\	-mi-	4a/	4ee\
8AA/J	.	.	.	.	.	.	.	.	.	.
!LO:TX:a:t=P:problem=mixed beam	!	!	!	!	!	!	!	!	!	!
16D/LL	16dd\LL	16ff#\LL	4D\	-ni	4d\	-ni	4ff#\	-ni	4dd\	4ff#\
16d\	16dd\	16dd\	.	.	.	.	.	.	.	.
16c#\	16cc#\	16cc#\	.	.	.	.	.	.	.	.
16B\JJ	16b\JJ	16b\JJ	.	.	.	.	.	.	.	.
!	!LO:TX:a:t=P:problem=główka nuty przed nutą 16a; pomyłka skryptora	!	!	!	!	!	!	!	!	!
16A\LL	16a/LL	16a/LL	4r	.	4r	.	4r	.	4r	4r
16G\	16g/	16g/	.	.	.	.	.	.	.	.
16F#\	16f#/	16f#/	.	.	.	.	.	.	.	.
16E\JJ	16e/JJ	16e/JJ	.	.	.	.	.	.	.	.
=5	=5	=5	=5	=5	=5	=5	=5	=5	=5	=5
*tremolo	*	*	*	*	*	*	*	*	*	*
8D\L	16d/LL	16d/LL	4d\	ſit	4d\	ſit	4ff#\	ſit	8dd\L	8ff#\L
.	16d/	16d/	.	.	.	.	.	.	.	.
8D\	16d/	16d/	.	.	.	.	.	.	16dd\L	16ff#\L
.	16d/JJ	16d/JJ	.	.	.	.	.	.	16dd\JJ	16ff#\JJ
*	*	*tremolo	*	*	*	*	*	*	*	*
8D\	16dd\LL	16ff#\LL	8d\	no-	8d\	no-	8ff#\	no-	8dd\L	8ff#\L
.	16dd\	16ff#\	.	.	.	.	.	.	.	.
8D\J	16dd\	16ff#\	8d\	-men	8d\	-men	8ff#\	-men	8dd\J	8ff#\J
.	16dd\JJ	16ff#\JJ	.	.	.	.	.	.	.	.
8AA/L	16cc#\LL	16ee\LL	8c#\	Do-	8c#\	Do-	8ee\	Do-	8a/L	8ee\L
.	16cc#\	16ee\	.	.	.	.	.	.	.	.
8AA/	16cc#\	16ee\	8c#\	-mi-	8c#\	-mi-	8ee\	-mi-	8a/	8ee\
.	16cc#\JJ	16ee\JJ	.	.	.	.	.	.	.	.
8AA/	16ee\LL	16aa\LL	4c#\	-ni	4c#\	-ni	4ee\	-ni	8a/	8ee\
.	16ee\	16aa\	.	.	.	.	.	.	.	.
8AA/J	16ee\	16aa\	.	.	.	.	.	.	8a/J	8ee\J
.	16ee\JJ	16aa\JJ	.	.	.	.	.	.	.	.
*	*	*Xtremolo	*	*	*	*	*	*	*	*
!	!	!	!	!	!	!	!LO:PB:g=original	!	!	!
=6	=6	=6	=6	=6	=6	=6	=6	=6	=6	=6
*	*tremolo	*	*	*	*	*	*	*	*	*
8E\L	16e/LL	16e/LL	8e\	be-	8B\	be-	8dd\	Be-	8ee\L	8ee\L
.	16e/	16e/	.	.	.	.	.	.	.	.
8E\	16e/	16e/	8e\	-ne-	8B\	-ne-	8dd\	-ne-	16ee\L	16ee\L
.	16e/JJ	16e/JJ	.	.	.	.	.	.	16ee\JJ	16ee\JJ
*	*	*tremolo	*	*	*	*	*	*	*	*
8E\	16b\LL	16dd\LL	4e\	-dic-	4B\	-dic-	4dd\	-dic-	8ee\L	8ee\L
.	16b\	16dd\	.	.	.	.	.	.	.	.
8E\J	16b\	16dd\	.	.	.	.	.	.	8ee\J	8ee\J
.	16b\JJ	16dd\JJ	.	.	.	.	.	.	.	.
*Xtremolo	*Xtremolo	*Xtremolo	*	*	*	*	*	*	*	*
!	!	!LO:LB:g=original	!	!	!	!	!	!	!	!
8A\L	16cc#\LL	16cc#\LL	4A\	-tum	4A\	-tum	4cc#\	-tum	4a/	4ee\
.	16a\	16a\	.	.	.	.	.	.	.	.
8E\J	16cc#\	16cc#\	.	.	.	.	.	.	.	.
.	16ee\JJ	16ee\JJ	.	.	.	.	.	.	.	.
8C#/L	16aa\LL	16aa\LL	4r	.	4r	.	4r	.	4r	4r
.	16ee\	16ee\	.	.	.	.	.	.	.	.
8AA/J	16cc#\	16cc#\	.	.	.	.	.	.	.	.
.	16a\JJ	16a\JJ	.	.	.	.	.	.	.	.
=7	=7	=7	=7	=7	=7	=7	=7	=7	=7	=7
*tremolo	*	*	*	*	*	*	*	*	*	*
8D\L	16d/LL	16d/LL	4d\	ex	4d\	Ex	4ff#\	Ex	8dd\L	8ff#\L
.	16d/	16d/	.	.	.	.	.	.	.	.
8D\	16d/	16d/	.	.	.	.	.	.	16dd\L	16ff#\L
.	16d/JJ	16d/JJ	.	.	.	.	.	.	16dd\JJ	16ff#\JJ
*	*	*tremolo	*	*	*	*	*	*	*	*
8D\	16dd\LL	16ff#\LL	4d\	hoc	4d\	hoc	4ff#\	hoc	8dd\L	8ff#\L
.	16dd\	16ff#\	.	.	.	.	.	.	.	.
8D\J	16dd\	16ff#\	.	.	.	.	.	.	8dd\J	8ff#\J
.	16dd\JJ	16ff#\JJ	.	.	.	.	.	.	.	.
!	!	!	!LO:LB:g=original	!	!	!	!	!	!	!
*Xtremolo	*	*	*	*	*	*	*	*	*	*
8AA/L	16cc#\LL	16ee\LL	8A\	nunc	8c#\	nunc	8ee\	nunc	8a/L	8ee\L
.	16cc#\	16ee\	.	.	.	.	.	.	.	.
8AA/	16cc#\	16ee\	8A\	et	8c#\	us-	8ee\	et	16a/L	16ee\L
.	16cc#\JJ	16ee\JJ	.	.	.	.	.	.	16a/JJ	16ee\JJ
!	!	!	!	!	!LO:LB:g=original	!	!	!	!	!
8C#/	16ee\LL	16aa\LL	8C#/	us-	8c#\	-que	8ee\	us-	8a/L	8ee\L
.	16ee\	16aa\	.	.	.	.	.	.	.	.
8C#/J	16ee\	16aa\	8C#/	-que	8c#\	in	8ee\	-que	8a/J	8ee\J
.	16ee\JJ	16aa\JJ	.	.	.	.	.	.	.	.
*	*	*Xtremolo	*	*	*	*	*	*	*	*
!	!LO:LB:g=original	!	!	!	!	!	!	!	!LO:LB:g=original	!LO:LB:g=original
=8	=8	=8	=8	=8	=8	=8	=8	=8	=8	=8
*	*tremolo	*	*	*	*	*	*	*	*	*
8G#X\L	16e/LL	16e/LL	4G#X\	in	4B\	ſe-	4dd\	in	8ee\L	8ee\L
.	16e/	16e/	.	.	.	.	.	.	.	.
8G#\	16e/	16e/	.	.	.	.	.	.	16ee\L	16ee\L
.	16e/JJ	16e/JJ	.	.	.	.	.	.	16ee\JJ	16ee\JJ
*	*	*tremolo	*	*	*	*	*	*	*	*
8E\	16b\LL	16dd\LL	8E\	ſe-	8B\L	-cu-	8dd\	ſe-	8ee\L	8ee\L
.	16b\	16dd\	.	.	.	.	.	.	.	.
8E\J	16b\	16dd\	8E\	-cu-	8B\J	.	8dd\	-cu-	8ee\J	8ee\J
.	16b\JJ	16dd\JJ	.	.	.	.	.	.	.	.
*	*Xtremolo	*Xtremolo	*	*	*	*	*	*	*	*
8A\L	16cc#\LL	16cc#\LL	4A\	-lum	4A\	-lum	4cc#\	-lum	4a/	4ee\
.	16a\	16a\	.	.	.	.	.	.	.	.
8E\J	16cc#\	16cc#\	.	.	.	.	.	.	.	.
.	16ee\JJ	16ee\JJ	.	.	.	.	.	.	.	.
8C#/L	16aa\LL	16aa\LL	4r	.	4r	.	4r	.	4r	4r
.	16ee\	16ee\	.	.	.	.	.	.	.	.
8AA/J	16cc#\	16cc#\	.	.	.	.	.	.	.	.
.	16a\JJ	16a\JJ	.	.	.	.	.	.	.	.
=9	=9	=9	=9	=9	=9	=9	=9	=9	=9	=9
*tremolo	*tremolo	*tremolo	*	*	*	*	*	*	*	*
8D\L	16ff#\LL	16ff#\LL	4d\	a	4d\	a	4ff#\	a	4dd\	4ff#\
.	16ff#\	16ff#\	.	.	.	.	.	.	.	.
8D\	16ff#\	16ff#\	.	.	.	.	.	.	.	.
.	16ff#\JJ	16ff#\JJ	.	.	.	.	.	.	.	.
8D\	16dd\LL	16dd\LL	8d\	so-	8B\	ſo-	8dd\	so-	4r	4r
.	16dd\	16dd\	.	.	.	.	.	.	.	.
8D\J	16dd\	16dd\	8d\	-lis	8B\	-lis	8dd\	-lis	.	.
.	16dd\JJ	16dd\JJ	.	.	.	.	.	.	.	.
*	*Xtremolo	*Xtremolo	*	*	*	*	*	*	*	*
!	!LO:SIC:s=16a#:v	!	!	!	!	!	!	!	!	!
8D\L	16a/LL	16a#X/LL	8d\	or-	8F#/	or-	8a#X\	or-	8dd\L	8ff#\L
!	!LO:SIC:s=16a#:v	!	!	!	!	!	!	!	!	!
.	16a/	16a#/	.	.	.	.	.	.	.	.
8D\	16b/	16b/	8d\	-tu	8G/	-tu	8b\	-tu	16dd\L	16ff#\L
.	16b/JJ	16b/JJ	.	.	.	.	.	.	16dd\JJ	16ff#\JJ
8D\	16dd\LL	16dd\LL	8d\	us-	8B\	us-	8dd\	us-	8dd\L	8ff#\L
.	16dd\	16dd\	.	.	.	.	.	.	.	.
8D\J	16ff#\	16ff#\	8d\	-que	8d\	-que	8ff#\	-que	8dd\J	8ff#\J
.	16ff#\JJ	16ff#\JJ	.	.	.	.	.	.	.	.
*Xtremolo	*	*	*	*	*	*	*	*	*	*
!LO:LB:g=original	!	!	!	!	!	!	!	!	!	!
=10	=10	=10	=10	=10	=10	=10	=10	=10	=10	=10
*	*tremolo	*tremolo	*	*	*	*	*	*	*	*
8C#/L	16ee\LL	16ee\LL	4c#\	ad	4c#\	ad	4ee\	ad	4a/	4ee\
.	16ee\	16ee\	.	.	.	.	.	.	.	.
8C#/	16ee\	16ee\	.	.	.	.	.	.	.	.
.	16ee\JJ	16ee\JJ	.	.	.	.	.	.	.	.
8C#/	16cc#\LL	16cc#\LL	4c#\	o-	4A\	o-	4cc#\	o-	4r	4r
.	16cc#\	16cc#\	.	.	.	.	.	.	.	.
8C#/J	16cc#\	16cc#\	.	.	.	.	.	.	.	.
.	16cc#\JJ	16cc#\JJ	.	.	.	.	.	.	.	.
*tremolo	*Xtremolo	*Xtremolo	*	*	*	*	*	*	*	*
8C#/L	16g#X/LL	16g#X/LL	4c#\	-ca-	4E/	-ca-	8g#X\L	-ca-	8a/L	8ee\L
.	16g#/	16g#/	.	.	.	.	.	.	.	.
8C#/	16a/	16a/	.	.	.	.	8a\J	.	16a/L	16ee\L
.	16a/JJ	16a/JJ	.	.	.	.	.	.	16a/JJ	16ee\JJ
8C#/	16cc#\LL	16cc#\LL	4c#\	-ſum	8A\L	-ſum	8cc#\L	-ſum	8a/L	8ee\L
.	16cc#\	16cc#\	.	.	.	.	.	.	.	.
8C#/J	16ee\	16ee\	.	.	8c#\J	.	8ee\J	.	8a/J	8ee\J
.	16ee\JJ	16ee\JJ	.	.	.	.	.	.	.	.
*Xtremolo	*	*	*	*	*	*	*	*	*	*
=11	=11	=11	=11	=11	=11	=11	=11	=11	=11	=11
!LO:TX:a:t=P:problem=mixed beam	!	!	!	!	!	!	!	!	!	!
8E\L	16b/LL	16dd\LL	8E\	lau-	8B\	lau-	8dd\	Lau-	4a/	4ee\
.	16b/	16dd\	.	.	.	.	.	.	.	.
8E\	16g#X/	16b\	8E\	-da-	8G#X/	-da-	8b\	-da-	.	.
.	16g#/JJ	16b\JJ	.	.	.	.	.	.	.	.
8A\	16a/LL	16cc#\LL	8A\	-bi-	8A/	-bi-	8cc#\	-bi-	4r	4r
.	16a/	16cc#\	.	.	.	.	.	.	.	.
8AA/J	16e/	16a\	8AA/	-le	8E/	-le	8a\	-le	.	.
!	!	!LO:TX:b:Bi:t=Citiſsime Ver	!	!	!	!	!	!	!	!
!	!	!LO:PB:g=original	!	!	!	!	!	!	!	!
.	16e/JJ	16a\JJ	.	.	.	.	.	.	.	.
8D\L	16dd\LL	16ff#\LL	8D/L	No-	8d\L	No-	8ff#\L	no-	4dd\	4ff#\
.	16dd\	16ff#\	.	.	.	.	.	.	.	.
8C#\	16b\	16dd\	8BB/J	.	8B\J	.	8dd\J	.	.	.
.	16b\JJ	16dd\JJ	.	.	.	.	.	.	.	.
8D\	16a/LL	16cc#\LL	8D\L	-men	8A/L	-men	8cc#\L	-men	8r	8r
.	16a/	16cc#\	.	.	.	.	.	.	.	.
8D\J	16d/	16b\	8F#\J	.	8G#X/J	.	8b\J	.	8dd\	8ff#\
.	16d/JJ	16b\JJ	.	.	.	.	.	.	.	.
=12	=12	=12	=12	=12	=12	=12	=12	=12	=12	=12
!LO:TX:a:t=P:problem=mixed beam	!	!	!	!	!	!	!	!	!	!
8E\L	4a/	4a/	4E\	Do-	4A/	Do-	4a\	Do-	8a\L	8ee\L
8E\	.	.	.	.	.	.	.	.	8dd\J	8ff#\J
!	!	!	!	!	!LO:SIC:s=4G#:v	!	!	!	!	!
8EE/	4g#X/	4b/	4E\	-mi-	4G/	-mi-	4b\	-mi-	8ee\L	8ee\L
8EE/J	.	.	.	.	.	.	.	.	16ee\L	16ee\L
.	.	.	.	.	.	.	.	.	16ee\JJ	16ee\JJ
*tremolo	*	*	*	*	*	*	*	*	*	*
!	!LO:TX:a:t=P:problem=mixed beam	!LO:TX:a:t=P:problem=mixed beam	!	!	!	!	!	!	!	!
8AA/L	16a/LL	16a/LL	4A\	-ni	4A/	-ni	4a\	-ni	4dd\	4ff#\
.	16a/	16a/	.	.	.	.	.	.	.	.
8AA/	16aa\	16aa\	.	.	.	.	.	.	.	.
.	16aa\JJ	16aa\JJ	.	.	.	.	.	.	.	.
8AA/	16ff#\LL	16ff#\LL	4r	.	4r	.	4r	.	8r	8r
.	16ff#\	16ff#\	.	.	.	.	.	.	.	.
8AA/J	16dd#X\	16dd#X\	.	.	.	.	.	.	8dd\	8ff#\
.	16dd#\JJ	16dd#\JJ	.	.	.	.	.	.	.	.
=13	=13	=13	=13	=13	=13	=13	=13	=13	=13	=13
!	!LO:TX:a:t=P:problem=mixed beam	!	!	!	!	!	!	!	!	!
8E\L	8ee\L	8ee\L	00r	.	00r	.	0r	.	8a\L	8ee\L
!	!LO:SIC:s=16g#:v	!	!	!	!	!	!	!	!	!
8E\	16g/L	16b\L	.	.	.	.	.	.	8dd\J	8ff#\J
.	16b/JJ	16ddn\JJ	.	.	.	.	.	.	.	.
8E\	8a/L	8cc#\L	.	.	.	.	.	.	8ee\L	8ee\L
!	!LO:SIC:s=8g#:v	!	!	!	!	!	!	!	!	!
8E\J	8g/J	8b\J	.	.	.	.	.	.	16ee\L	16ee\L
.	.	.	.	.	.	.	.	.	16ee\JJ	16ee\JJ
*Xtremolo	*	*	*	*	*	*	*	*	*	*
!LO:TX:a:t=P:problem=mixed beam	!LO:TX:a:t=P:problem=mixed beam	!LO:TX:a:t=P:problem=mixed beam	!	!	!	!	!	!	!	!
8A\L	16a/LL	16a/LL	.	.	.	.	.	.	4a/	4ee\
.	16a/	16a/	.	.	.	.	.	.	.	.
8A\	16aa\	16aa\	.	.	.	.	.	.	.	.
.	16aa\JJ	16aa\JJ	.	.	.	.	.	.	.	.
8AA/	16ff#\LL	16ff#\LL	.	.	.	.	.	.	4r	4r
.	16ff#\	16ff#\	.	.	.	.	.	.	.	.
8AA/J	16dd#X\	16dd#X\	.	.	.	.	.	.	.	.
.	16dd#\JJ	16dd#\JJ	.	.	.	.	.	.	.	.
=14	=14	=14	=14	=14	=14	=14	=14	=14	=14	=14
!	!LO:TX:a:t=P:problem=mixed beam	!	!	!	!	!	!	!	!	!LO:TX:a:t=28
8G#X\L	8ee\L	8ee\L	.	.	.	.	.	.	00r	00r
!	!LO:SIC:s=16g#:v	!	!	!	!	!	!	!	!	!
8G#\	16g/L	16b\L	.	.	.	.	.	.	.	.
.	16b/JJ	16ddn\JJ	.	.	.	.	.	.	.	.
8E\	8a/L	8cc#\L	.	.	.	.	.	.	.	.
!	!LO:SIC:s=8g#:v	!	!	!	!	!	!	!	!	!
8E\J	8g/J	8b\J	.	.	.	.	.	.	.	.
!LO:TX:a:t=P:problem=mixed beam	!	!	!	!	!	!	!	!	!	!
8A\L	4a/	4a/	.	.	.	.	.	.	.	.
8D\	.	.	.	.	.	.	.	.	.	.
!	!LO:SIC:s=4g#:v	!	!	!	!	!	!	!	!	!
8E\	4g/	4b/	.	.	.	.	.	.	.	.
8EE/J	.	.	.	.	.	.	.	.	.	.
!	!LO:LB:g=original	!	!	!	!	!	!LO:LB:g=original	!	!	!
=15	=15	=15	=15	=15	=15	=15	=15	=15	=15	=15
8C#/L	8a/L	8a\L	.	.	.	.	8a\L	Ex-	.	.
8C#/	16a/L	16cc#\L	.	.	.	.	16cc#\L	.	.	.
.	16cc#/JJ	16ee\JJ	.	.	.	.	16ee\JJ	.	.	.
!	!	!LO:TX:a:t=P:problem=w źródle przed nutą tajemnicze maźnięcie przypominające kasownik	!	!	!	!	!	!	!	!
8AA/	8b/L	8dd\L	.	.	.	.	8dd\	-cel-	.	.
8AA/J	8a/J	8cc#\J	.	.	.	.	8cc#\	-sus	.	.
*tremolo	*	*	*	*	*	*	*	*	*	*
8E\L	8g#X/L	8b/L	.	.	.	.	8b\L	ſu-	.	.
8E\	8f#/J	8g#X/J	.	.	.	.	8a#X\J	.	.	.
.	8qqf#/	8qqa/	.	.	.	.	8qqa#/	.	.	.
8E\	4g#/	4b/	.	.	.	.	4b\	-per	.	.
8E\J	.	.	.	.	.	.	.	.	.	.
*Xtremolo	*	*	*	*	*	*	*	*	*	*
=16	=16	=16	=16	=16	=16	=16	=16	=16	=16	=16
!LO:TX:a:t=P:problem=mixed beam	!	!	!	!	!	!	!	!	!	!
8AA/L	8dd\L	8ff#\L	.	.	.	.	8ff#\	om-	.	.
8A\	8dd\	8ff#\	.	.	.	.	8ff#\	-nes	.	.
8AA/	8cc#\	8ee\	.	.	.	.	8ee\	gen-	.	.
8A\J	8b\J	8dd\J	.	.	.	.	8dd\	-tes	.	.
!LO:TX:a:t=P:problem=mixed beam	!	!	!	!	!	!	!	!	!	!
8AA/L	8a\L	8cc#\L	.	.	.	.	8.cc#\	Do-	.	.
8A\	8b\	8dd\	.	.	.	.	.	.	.	.
.	.	.	.	.	.	.	16dd\	-mi-	.	.
.	.	.	.	.	.	.	8qqdd/	.	.	.
8AA/	8cc#\	8ee\	.	.	.	.	4ee\	-(nus)	.	.
8A\J	8cc#\J	8ee\J	.	.	.	.	.	.	.	.
=17	=17	=17	=17	=17	=17	=17	=17	=17	=17	=17
!LO:TX:a:t=P:problem=mixed beam	!	!	!	!	!	!	!	!	!	!
8AA/L	8dd\L	8ff#\L	0r	.	0r	.	8ff#\	om-	.	.
8A\	8dd\	8ff#\	.	.	.	.	8ff#\	-nes	.	.
8AA/	8cc#\	8ee\	.	.	.	.	8ee\	gen-	.	.
8A\J	8b\J	8dd\J	.	.	.	.	8dd\	-tes	.	.
!LO:TX:a:t=P:problem=mixed beam	!	!	!	!	!	!	!	!	!	!
8E/L	8b\L	8dd\L	.	.	.	.	8.dd\	Do-	.	.
8EE/	8b\	8dd\	.	.	.	.	.	.	.	.
.	.	.	.	.	.	.	16cc#\	-mi-	.	.
!	!	!	!	!	!	!	!LO:N:vis=8	!	!	!
8A/	8a\	8cc#\	.	.	.	.	4cc#\	-nus	.	.
8AA/J	8a\J	8cc#\J	.	.	.	.	.	.	.	.
!	!	!LO:LB:g=original	!	!	!	!	!	!	!	!
=18	=18	=18	=18	=18	=18	=18	=18	=18	=18	=18
!LO:TX:a:t=P:problem=mixed beam	!	!	!	!	!	!	!	!	!	!
8AA/L	8ff#\L	8aa\L	.	.	.	.	4aa\	et	00r	00r
8A\	8ff#\	8aa\	.	.	.	.	.	.	.	.
8AA/	8ee\	8gg#X\	.	.	.	.	8gg#X\L	ſu-	.	.
8A\J	8dd\J	8ff#\J	.	.	.	.	8ff#\J	.	.	.
!LO:TX:a:t=P:problem=mixed beam	!	!	!	!	!	!	!	!	!	!
8AA/L	8cc#\L	8ee\L	.	.	.	.	8ee\	-per	.	.
8A\	8b\	8dd\	.	.	.	.	8dd\	Cae-	.	.
8AA/	8a\	8cc#\	.	.	.	.	4cc#\	-los	.	.
8A\J	8a\J	8cc#\J	.	.	.	.	.	.	.	.
=19	=19	=19	=19	=19	=19	=19	=19	=19	=19	=19
!LO:TX:a:t=P:problem=mixed beam	!	!	!	!	!	!	!	!	!	!
8AA/L	8dd\L	8ff#\L	1r	.	1r	.	4ff#\	Glo-	.	.
8A\	8dd\	8ff#\	.	.	.	.	.	.	.	.
8AA/	8cc#\	8ee\	.	.	.	.	16ee\LL	-ri-	.	.
.	.	.	.	.	.	.	16dd\JJ	.	.	.
8A\J	8b\J	8ee\J	.	.	.	.	16cc#\LL	-a	.	.
.	.	.	.	.	.	.	16b\JJ	.	.	.
!LO:TX:a:t=P:problem=mixed beam	!	!	!	!	!	!	!	!	!	!
8EE/L	8a\L	8dd\L	.	.	.	.	4a\	e-	.	.
8E\	8a\	8dd\	.	.	.	.	.	.	.	.
!	!	!LO:SIC:s=8b:v	!	!	!	!	!	!	!	!
8EE/	8g#X\	8cc#\	.	.	.	.	4b\	.	.	.
!	!	!LO:SIC:s=8b:v	!	!	!	!	!	!	!	!
8E\J	8g#\J	8cc#\J	.	.	.	.	.	.	.	.
!	!	!	!LO:LB:g=original	!	!	!	!	!	!	!
=20	=20	=20	=20	=20	=20	=20	=20	=20	=20	=20
*tremolo	*	*	*	*	*	*	*	*	*	*
8AA/L	16e/LL	16a\LL	8r	.	8r	.	8a\	-jus	.	.
.	16a/	16cc#\	.	.	.	.	.	.	.	.
8AA/	16cc#/	16ee\	8A\	Qui	8c#\	qui	8ee\	qui	.	.
.	16cc#/JJ	16ee\JJ	.	.	.	.	.	.	.	.
8AA/	16cc#\LL	16ee\LL	8A\	ſi-	8c#\	ſi-	8ee\	ſi-	.	.
.	16cc#\	16ee\	.	.	.	.	.	.	.	.
!	!	!	!	!	!LO:LB:g=original	!	!	!	!	!
8AA/J	16b\	16dd\	8A\	-cut	16B\LL	-cut	16dd\LL	-cut	.	.
.	16a\JJ	16cc#\JJ	.	.	16A\JJ	.	16cc#\JJ	.	.	.
8AA/L	16e/LL	16a\LL	4A\	Do-	4c#\	Do-	4ee\	Do-	.	.
.	16a/	16cc#\	.	.	.	.	.	.	.	.
8AA/	16cc#/	16ee\	.	.	.	.	.	.	.	.
.	16cc#/JJ	16ee\JJ	.	.	.	.	.	.	.	.
8AA/	16ee\LL	16gg\LL	8A\	-mi-	8e\	-mi-	8gg\	-mi-	.	.
.	16ee\	16gg\	.	.	.	.	.	.	.	.
8AA/J	16dd\	16ff#\	8A\	-nus	16d\LL	-nus	16ff#\	.	.	.
.	16cc#\JJ	16ee\JJ	.	.	16c#\JJ	.	16ee\	-nus	.	.
*Xtremolo	*	*	*	*	*	*	*	*	*	*
!	!	!	!	!	!	!	!LO:LB:g=original	!	!	!
=21	=21	=21	=21	=21	=21	=21	=21	=21	=21	=21
!	!	!LO:TX:a:t=P:problem=mixed beam	!	!	!	!	!	!	!	!
8AA/L	16a\LL	16a/LL	4A\	De-	4f#\	De-	4aa\	De-	.	.
.	16a\	16a/	.	.	.	.	.	.	.	.
8AA/	16ff#\	16aa\	.	.	.	.	.	.	.	.
.	16ff#\JJ	16aa\JJ	.	.	.	.	.	.	.	.
8C#/	16ee\LL	16gg\LL	8C#/L	-us	8e\L	-us	8gg\L	-us	.	.
.	16ee\	16gg\	.	.	.	.	.	.	.	.
8C#/J	16dd\	16ff#\	8D/J	.	8d\J	.	8ff#\J	.	.	.
.	16dd\JJ	16ff#\JJ	.	.	.	.	.	.	.	.
!LO:LB:g=original	!	!	!	!	!	!	!	!	!	!
8A\L	4ddT>\	4ff#\	4A\	No-	4d\	no-	4ff#\	no-	.	.
8E\	.	.	.	.	.	.	.	.	.	.
8C#\	16cc#\LL	16ee\LL	4AA/	-ster	4c#\	-ster	4ee\	-ſter	.	.
.	16aa\	16aa\	.	.	.	.	.	.	.	.
8AA\J	16ee\	16ee\	.	.	.	.	.	.	.	.
.	16cc#\JJ	16cc#\JJ	.	.	.	.	.	.	.	.
=22	=22	=22	=22	=22	=22	=22	=22	=22	=22	=22
*tremolo	*	*	*	*	*	*	*	*	*	*
8AA/L	16e/LL	16a\LL	4A\	qui	4c#\	qui	4ee\	qui	00r	00r
.	16a/	16cc#\	.	.	.	.	.	.	.	.
8AA/	16cc#/	16ee\	.	.	.	.	.	.	.	.
.	16cc#/JJ	16ee\JJ	.	.	.	.	.	.	.	.
8AA/	16cc#\LL	16ee\LL	4A\	in	8B\L	in	8dd\L	in	.	.
.	16cc#\	16ee\	.	.	.	.	.	.	.	.
8AA/J	16b\	16dd\	.	.	8A\J	.	8cc#\J	.	.	.
.	16a\JJ	16cc#\JJ	.	.	.	.	.	.	.	.
8AA/L	16e/LL	16a\LL	4A\	al-	4f#\	al-	4gg\	al-	.	.
.	16a/	16cc#\	.	.	.	.	.	.	.	.
8AA/	16cc#/	16ee\	.	.	.	.	.	.	.	.
.	16cc#/JJ	16ee\JJ	.	.	.	.	.	.	.	.
8AA/	16ee\LL	16gg\LL	4A\	-tis	8e\L	-tis	8ff#\L	-tis	.	.
.	16ee\	16gg\	.	.	.	.	.	.	.	.
8AA/J	16dd\	16ff#\	.	.	8d\J	.	8ee\J	.	.	.
.	16cc#\JJ	16ee\JJ	.	.	.	.	.	.	.	.
*Xtremolo	*	*	*	*	*	*	*	*	*	*
!	!LO:LB:g=original	!	!	!	!	!	!	!	!	!
=23	=23	=23	=23	=23	=23	=23	=23	=23	=23	=23
!	!	!LO:TX:a:t=P:problem=mixed beam	!	!	!	!	!	!	!	!
8AA/L	16a\LL	16a/LL	4A\	ha-	4f#\	ha-	4aa\	ha-	.	.
.	16a\	16a/	.	.	.	.	.	.	.	.
8AA/	16ff#\	16aa\	.	.	.	.	.	.	.	.
.	16ff#\JJ	16aa\JJ	.	.	.	.	.	.	.	.
8C#/	16ee\LL	16gg\LL	8C#/L	.	8e\L	-bi-	8gg\L	-bi-	.	.
.	16ee\	16gg\	.	.	.	.	.	.	.	.
8C#/J	16dd\	16ff#\	8D/J	.	8d\J	.	8ff#\J	.	.	.
.	16dd\JJ	16ff#\JJ	.	.	.	.	.	.	.	.
.	.	.	.	.	.	.	8qqff#/	.	.	.
!	!	!	!	!	!LO:SIC:s=2d:v	!	!LO:SIC:s=2ff#:v	!	!	!
8AA/L	4dd\	4ff#\	4A\	-bi-	2c#\	-tat	2ee\	-tat	.	.
8E/	.	.	.	.	.	.	.	.	.	.
8C#/	4cc#\	4ee\	4AA/	-tat	.	.	.	.	.	.
8AA/J	.	.	.	.	.	.	.	.	.	.
=24	=24	=24	=24	=24	=24	=24	=24	=24	=24	=24
8F#\L	16ccn\LL	16aa\LL	8F#\	et	8F#/	et	8a\	et	.	.
.	16a\	16ccn\	.	.	.	.	.	.	.	.
8F#\	16a\	16cc\	8F#\	hu-	8G/	hu-	8ccn\	hu-	.	.
.	16a\JJ	16cc\JJ	.	.	.	.	.	.	.	.
!	!	!LO:LB:g=original	!	!	!	!	!	!	!	!
8D\	16a/LL	16cc\LL	8D\	-mi-	8A/	-mi-	8cc\	-mi-	.	.
.	16a/	16cc\	.	.	.	.	.	.	.	.
8D\J	16g/	16b\	16D\	-li-	16G/	-li-	16b\	-li-	.	.
.	16f#/JJ	16a\JJ	16D\	-a	16F#/	-a	16a\	-a	.	.
8G\L	16g/LL	16b\LL	8G\	res-	8G/	res-	8b\	res-	.	.
.	16g/	16b\	.	.	.	.	.	.	.	.
8D\J	16b/	16dd\	8D\	-pi-	8d\	-pi-	8dd\	-pi-	.	.
.	16b/JJ	16dd\JJ	.	.	.	.	.	.	.	.
8BB/L	16dd\LL	16gg\LL	8BB/	-cit	8B\	-cit	8gg\	-cit	.	.
.	16b\	16dd\	.	.	.	.	.	.	.	.
8GG/J	16dd\	16gg\	8GG/	in	8G\	in	8gg\	in	.	.
.	16gg\JJ	16bb\JJ	.	.	.	.	.	.	.	.
=25	=25	=25	=25	=25	=25	=25	=25	=25	=25	=25
!LO:TX:a:t=P:problem=mixed beam	!	!	!	!	!	!	!	!	!	!
8G\L	16ccn\LL	16aa\LL	16G\	Cae-	16cn\	cel-	16aa\	Cae-	.	.
.	16a\	16ff#\	16G\	-lo	16A\	-lo	16ff#\	-lo	.	.
!	!	!	!	!	!LO:N:vis=16	!	!	!	!	!
!	!	!	!	!	!LO:SIC:s=16B:v:t=w źródle zbędnie powtórzona nuta 16B	!	!	!	!	!
8E\	16b\	16gg\	16E\	et	32B\	et	16gg\	et	.	.
!	!	!LO:SIC:s=16ccn:v	!	!	!LO:N:vis=16	!	!	!	!	!
.	.	.	.	.	32B\	.	.	.	.	.
.	16a\JJ	16cc#\JJ	16E\	in	16A\	in	16ccn\	in	.	.
!	!	!	!LO:LB:g=original	!	!	!	!	!	!	!
8D\	8g/L	8b/L	4D\	ter-	8G/L	ter-	8b\	ter-	.	.
8DD/J	8f#/J	8a/J	.	.	8F#/J	.	8a\	.	.	.
*tremolo	*	*	*	*	*	*	*	*	*	*
!	!LO:TX:a:t=P:problem=mixed beam	!LO:TX:a:t=P:problem=mixed beam	!	!	!	!	!	!	!	!
8GG/L	16g/LL	16g/LL	4G\	-ra	4G/	-ra	4g\	-ra	.	.
!	!LO:SIC:s=16gg#:v	!	!	!	!	!	!	!	!	!
.	16gg\	16gg#X\	.	.	.	.	.	.	.	.
8GG/	16bb\	16bb\	.	.	.	.	.	.	.	.
.	16cc#X\JJ	16cc#X/JJ	.	.	.	.	.	.	.	.
.	8qqcc#/	8qqcc#/	.	.	.	.	.	.	.	.
8GG/	4dd\	4dd\	4r	.	4r	.	4r	.	.	.
8GG/J	.	.	.	.	.	.	.	.	.	.
*Xtremolo	*	*	*	*	*	*	*	*	*	*
!	!	!	!	!	!LO:LB:g=original	!	!	!	!	!
=26	=26	=26	=26	=26	=26	=26	=26	=26	=26	=26
!LO:TX:a:t=P:problem=mixed beam	!	!LO:TX:a:t=P:problem=mixed beam	!	!	!	!	!	!	!	!
8Cn/L	16ccn\LL	16ee\LL	00r	.	0r	.	00r	.	00r	00r
.	16a\JJ	16a/	.	.	.	.	.	.	.	.
8D/	16a/LL	16ccn/	.	.	.	.	.	.	.	.
.	16A/JJ	16f#/JJ	.	.	.	.	.	.	.	.
.	8qqA/	8qqf#/	.	.	.	.	.	.	.	.
8G\	4B/	4g/	.	.	.	.	.	.	.	.
8GG/J	.	.	.	.	.	.	.	.	.	.
*tremolo	*	*	*	*	*	*	*	*	*	*
!	!LO:TX:a:t=P:problem=mixed beam	!	!	!	!	!	!	!	!	!
8GG/L	16g/LL	16g/LL	.	.	.	.	.	.	.	.
!	!LO:SIC:s=16gg#:v	!	!	!	!	!	!	!	!	!
.	16gg\	16gg#X\	.	.	.	.	.	.	.	.
8GG/	16bb\	16bb\	.	.	.	.	.	.	.	.
.	16cc#X\JJ	16cc#X/JJ	.	.	.	.	.	.	.	.
.	8qqcc#/	8qqcc#/	.	.	.	.	.	.	.	.
8GG/	4dd\	4dd\	.	.	.	.	.	.	.	.
8GG/J	.	.	.	.	.	.	.	.	.	.
*Xtremolo	*	*	*	*	*	*	*	*	*	*
=27	=27	=27	=27	=27	=27	=27	=27	=27	=27	=27
!	!LO:SIC:s=16ccn:v	!LO:TX:a:t=P:problem=mixed beam	!	!	!	!	!	!	!	!
8C#/L	16cc#/LL	16ee\LL	.	.	.	.	.	.	.	.
.	16f#/	16a/	.	.	.	.	.	.	.	.
8D/	16a/	16ccn/	.	.	.	.	.	.	.	.
.	16A/JJ	16f#/JJ	.	.	.	.	.	.	.	.
!	!LO:TX:a:t=P:problem=mixed beam	!LO:TX:a:t=P:problem=mixed beam	!	!	!	!	!	!	!	!
8AA/	16B/LL	16g/LL	.	.	.	.	.	.	.	.
.	16ee\	16gg\	.	.	.	.	.	.	.	.
!LO:SIC:s=8Cn:v	!	!	!	!	!	!	!	!	!	!
8C#/J	16ccn\	16ee\	.	.	.	.	.	.	.	.
.	16a\JJ	16cc\JJ	.	.	.	.	.	.	.	.
!LO:TX:a:t=P:problem=mixed beam	!	!	!	!	!	!	!	!	!	!
8D\L	4g/	4b/	.	.	.	.	.	.	.	.
8D\	.	.	.	.	.	.	.	.	.	.
8DD/	4f#/	4a/	.	.	.	.	.	.	.	.
8DD/J	.	.	.	.	.	.	.	.	.	.
=28	=28	=28	=28	=28	=28	=28	=28	=28	=28	=28
*tremolo	*	*	*	*	*	*	*	*	*	*
!	!LO:SIC:s=8g:v	!	!	!LO:SIC:s=8c#:v:t	!	!	!	!	!	!
8GG/L	8f#/L	8g/L	.	.	8b\	ſu-	.	.	.	.
8GG/	8b/	8dd/	.	.	8d\	-sci-	.	.	.	.
8GG/	8b/	8dd/	.	.	16cn\LL	-tans	.	.	.	.
.	.	.	.	.	16B\JJ	.	.	.	.	.
8GG/J	8b/J	8dd/J	.	.	16A\LL	a	.	.	.	.
.	.	.	.	.	16G\JJ	.	.	.	.	.
!	!LO:SIC:s=16ccn:v	!	!	!	!	!	!	!	!	!
8GG/L	16cc#\LL	16ee\LL	.	.	16e\LL	ter-	.	.	.	.
.	16a\	16ccn\	.	.	16c\	.	.	.	.	.
8GG/	16a\	16cc\	.	.	16c\	-ra	.	.	.	.
!	!LO:SIC:s=16ccn:v	!	!	!	!LO:SIC:s=16e:v	!	!	!	!	!
.	16cc#\JJ	16ee\JJ	.	.	16f#\JJ	.	.	.	.	.
.	8qqcc#/	8qqee/	.	.	8qqe/	.	.	.	.	.
8GG/	4b\	4dd\	.	.	4d\	in-	.	.	.	.
8GG/J	.	.	.	.	.	.	.	.	.	.
=29	=29	=29	=29	=29	=29	=29	=29	=29	=29	=29
*	*tremolo	*tremolo	*	*	*	*	*	*	*	*
!	!	!LO:SIC:s=8ccn:v	!	!	!LO:SIC:s=8cn:v	!	!	!	!	!
8D\L	8a/L	8cc#\L	.	.	8c#\L	-o-	.	.	.	.
!	!	!LO:SIC:s=8ccn:v	!	!	!	!	!	!	!	!
8D\	8a/	8cc#\	.	.	16A\L	.	.	.	.	.
.	.	.	.	.	16B\JJ	.	.	.	.	.
!	!	!LO:SIC:s=8ccn:v	!	!	!LO:SIC:s=8cn:v	!	!	!	!	!
8D\	8a/	8cc#\	.	.	8c#\	.	.	.	.	.
!	!	!LO:SIC:s=8ccn:v	!	!	!LO:SIC:s=8cn:v	!	!	!	!	!
8D\J	8a/J	8cc#\J	.	.	8c#\	pem	.	.	.	.
*	*Xtremolo	*Xtremolo	*	*	*	*	*	*	*	*
8GG/L	16g/LL	16b\LL	.	.	4B\	.	.	.	.	.
.	16b/	16dd\	.	.	.	.	.	.	.	.
!	!	!LO:SIC:s=16ccn:v	!	!	!	!	!	!	!	!
8GG/	16a/	16cc#\	.	.	.	.	.	.	.	.
.	16ccn/JJ	16ee\JJ	.	.	.	.	.	.	.	.
!	!LO:LB:g=original	!	!	!	!	!	!	!	!	!
.	8qqcc/	8qqee/	.	.	.	.	.	.	.	.
8GG/	4b\	4dd\	.	.	4r	.	.	.	.	.
8GG/J	.	.	.	.	.	.	.	.	.	.
=30	=30	=30	=30	=30	=30	=30	=30	=30	=30	=30
*	*tremolo	*tremolo	*	*	*	*	*	*	*	*
!	!	!LO:SIC:s=8ccn:v	!	!	!LO:SIC:s=8cn:v	!	!	!	!	!
8D\L	8a/L	8cc#\L	0r	.	8c#\L	in-	0r	.	00r	00r
!	!	!LO:SIC:s=8ccn:v	!	!	!	!	!	!	!	!
8D\	8a/	8cc#\	.	.	16A\L	.	.	.	.	.
.	.	.	.	.	16B\JJ	.	.	.	.	.
!	!	!LO:SIC:s=8ccn:v	!	!	!LO:SIC:s=8cn:v	!	!	!	!	!
8D\	8a/	8cc#\	.	.	8c#\	-o-	.	.	.	.
!	!	!LO:SIC:s=8ccn:v	!	!	!LO:SIC:s=8cn:v	!	!	!	!	!
8D\J	8a/J	8cc#\J	.	.	8c#\	-pem	.	.	.	.
*Xtremolo	*Xtremolo	*Xtremolo	*	*	*	*	*	*	*	*
!LO:TX:a:t=P:problem=mixed beam	!	!	!	!	!	!	!	!	!	!
8GG/L	8g/L	8b\L	.	.	8B\	et	.	.	.	.
8G\	8g/	8b\	.	.	8d\	de	.	.	.	.
!	!	!LO:SIC:s=8ccn:v	!	!	!LO:SIC:s=8cn:v	!	!	!	!	!
8D\	8a/	8cc#\	.	.	8c#\	ster-	.	.	.	.
8DD/J	8f#/J	8a\J	.	.	16A\	-co-	.	.	.	.
!	!	!	!	!	!LO:SIC:s=16cn:v	!	!	!	!	!
.	.	.	.	.	16c#\	-re	.	.	.	.
=31	=31	=31	=31	=31	=31	=31	=31	=31	=31	=31
!LO:TX:a:t=P:problem=mixed beam	!	!	!	!	!	!	!	!	!	!
8GG/L	8g/L	8b\L	.	.	8B\	e-	.	.	.	.
8G\	8g/	8b\	.	.	16B\	-ri-	.	.	.	.
.	.	.	.	.	16d\	-gens	.	.	.	.
!	!	!LO:SIC:s=8ccn:v	!	!	!LO:SIC:s=8cn:v	!	!	!	!	!
8D\	8a/	8cc#\	.	.	8c#\	pau-	.	.	.	.
8DD/J	8f#/J	8a\J	.	.	16A\	-pe-	.	.	.	.
.	.	.	.	.	16B\	-rem	.	.	.	.
!	!	!LO:LB:g=original	!	!	!	!	!	!	!	!
8GG/L	16g/LL	16b\LL	.	.	16g\LL	e-	.	.	.	.
.	16ccn/	16ee\	.	.	16e\JJ	.	.	.	.	.
16Cn/L	16b/	16dd\	.	.	16d\	-ri-	.	.	.	.
!	!	!LO:SIC:s=16ccn:v	!	!	!LO:SIC:s=16cn:v	!	!	!	!	!
16E/JJ	16a/JJ	16cc#\JJ	.	.	16c#\	-gens	.	.	.	.
!	!	!	!	!	!LO:LB:g=original	!	!	!	!	!
!LO:TX:a:t=P:problem=mixed beam	!	!	!	!	!	!	!	!	!	!
8D\L	8g/L	8b/L	.	.	8B\	pau-	.	.	.	.
!	!LO:SIC:s=8f:v	!	!	!	!	!	!	!	!	!
8DD/J	8g/J	8a/J	.	.	8A\	-pe-	.	.	.	.
=32	=32	=32	=32	=32	=32	=32	=32	=32	=32	=32
*tremolo	*	*	*	*	*	*	*	*	*	*
8GG/L	16.d/LL	16.g/LL	8G\	Ut	8.G/	-rem	8g\	ut	.	.
.	32B/K	32d/K	.	.	.	.	.	.	.	.
8GG/	16.B/	16.d/	8G\	co-	.	.	8g\	col-	.	.
.	.	.	.	.	16D/	ut	.	.	.	.
.	32d/JJk	32g/JJk	.	.	.	.	.	.	.	.
8GG/	16.d/LL	16.g/LL	8G\	-lo-	8G/	col-	8b\	-lo-	.	.
.	32g/K	32b/K	.	.	.	.	.	.	.	.
8GG/J	16.g/	16.b/	8G\	-cet	8B/	-lo-	8dd\	-cet	.	.
.	32b/JJk	32dd/JJk	.	.	.	.	.	.	.	.
8GG/L	16.b\LL	16.dd\LL	4G\	e-	4d\	-cet	4ffn\	e-	.	.
.	32dd\K	32gg\K	.	.	.	.	.	.	.	.
8GG/	16.aa\	16.gg\	.	.	.	.	.	.	.	.
.	32gg\JJk	32bb\JJk	.	.	.	.	.	.	.	.
8GG/	16.gg\LL	16.bb\LL	4G\	-um	4d\	eum	4ff\	-um	.	.
.	32bb\K	32ddd\K	.	.	.	.	.	.	.	.
8GG/J	16.bb\	16.ddd\	.	.	.	.	.	.	.	.
.	32ccn\JJk	32ee\JJk	.	.	.	.	.	.	.	.
*Xtremolo	*	*	*	*	*	*	*	*	*	*
!LO:LB:g=original	!	!	!	!	!	!	!	!	!	!
=33	=33	=33	=33	=33	=33	=33	=33	=33	=33	=33
*	*	*Xtuplet	*	*	*	*	*	*	*	*
!	!	!	!	!	!	!	!LO:SIC:s=4ffn:v	!	!	!
!	!LO:TUP:a:problem=klamra łukowa	!	!	!	!	!	!	!	!	!
8BB/L	24dd\LL	24ffn\LL	4B\	Cum	4d\	cum	4ff#\	cum	.	.
.	24cc#\	24ee\	.	.	.	.	.	.	.	.
.	24dd\JJ	24ff\JJ	.	.	.	.	.	.	.	.
!	!LO:TUP:a:problem=klamra łukowa	!	!	!	!	!	!	!	!	!
8BB/	24dd\LL	24ff\LL	.	.	.	.	.	.	.	.
.	24cc#\	24ee\	.	.	.	.	.	.	.	.
.	24dd\JJ	24ff\JJ	.	.	.	.	.	.	.	.
!	!LO:TUP:a:problem=klamra łukowa	!	!	!	!	!	!	!	!	!
8GG/	24ffn\LL	24ddd\LL	4G\	prin-	8e\L	prin-	8gg\L	prin-	.	.
!	!	!LO:SIC:s=24cccn:v	!	!	!	!	!	!	!	!
.	24ee\	24ccc#\	.	.	.	.	.	.	.	.
.	24ff\JJ	24bb\JJ	.	.	.	.	.	.	.	.
!	!	!	!	!	!	!	!LO:SIC:s=8ffn:v	!	!	!
!	!LO:TUP:a:problem=klamra łukowa	!	!	!	!	!	!	!	!	!
8GG/J	24ff\LL	24aa\LL	.	.	8d\J	.	8ff#\J	.	.	.
.	24ee\	24gg\	.	.	.	.	.	.	.	.
.	24dd\JJ	24ff\JJ	.	.	.	.	.	.	.	.
!	!	!	!	!	!	!	!LO:LB:g=original	!	!	!
!LO:SIC:s=8Cn:v	!	!	!	!	!	!	!	!	!	!
!LO:TX:a:t=P:problem=mixed beam	!	!	!	!	!	!	!LO:SIC:s=8.ffn:v	!	!	!
8C#/L	4dd\	4ffn\	8.C#/	-ci-	8.d\	-ci-	8.ff#\	-ci-	.	.
!LO:SIC:s=16cn:v	!	!	!	!	!	!	!	!	!	!
16c#\L	.	.	.	.	.	.	.	.	.	.
!	!	!	!	!	!	!	!LO:SIC:s=16ffn:v	!	!	!
16G\JJ	.	.	16C#/	-pi-	16d\	-pi-	16ff#\	-pi-	.	.
!LO:SIC:s=8Cn:v	!	!	!	!	!	!	!	!	!	!
8C#/L	4ccn\	4ee\	4C#/	-bus	4cn\	-bus	4ee\	-bus	.	.
!LO:SIC:s=8Cn:v	!	!	!	!	!	!	!	!	!	!
8C#/J	.	.	.	.	.	.	.	.	.	.
=34	=34	=34	=34	=34	=34	=34	=34	=34	=34	=34
*tremolo	*	*	*	*	*	*	*	*	*	*
*	*	*	*	*ij	*	*ij	*	*ij	*	*
8AA/L	16.cc#X/LL	16.ee\LL	8A\	Cum	8c#X\	cum	8ee\	cum	00r	00r
.	32e/K	32a\K	.	.	.	.	.	.	.	.
8AA/	16.e/	16.a\	8A\	prin-	8E/	prin-	8a\	prin-	.	.
.	32a/JJk	32cc#\JJk	.	.	.	.	.	.	.	.
8AA/	16.a\LL	16.cc#\LL	8A\	-ci-	8A\	-ci-	8cc#X\	-ci-	.	.
.	32cc#\K	32ee\K	.	.	.	.	.	.	.	.
8AA/J	16.cc#\	16.ee\	16A\	-pi-	16c#\	-pi-	16ee\	-pi-	.	.
.	.	.	16A\	-bus	16c#\	-bus	16ee\	-bus	.	.
.	32ee\JJk	32aa\JJk	.	.	.	.	.	.	.	.
*	*	*	*	*Xij	*	*Xij	*	*Xij	*	*
8AA/L	16.ee\LL	16.aa\LL	8.A\	po-	8.e\	Po-	8.gg\	po-	.	.
.	32aa\K	32ccc#\K	.	.	.	.	.	.	.	.
8AA/	16.aa\	16.ccc#\	.	.	.	.	.	.	.	.
.	.	.	16A\	-pu-	16e\	-pu-	16gg\	-pu-	.	.
.	32ccc#\JJk	32eee\JJk	.	.	.	.	.	.	.	.
8AA/	16.ccc#\LL	16.eee\LL	4A\	-li	4e\	-li	4gg\	-li	.	.
.	32cc#\K	32ee\K	.	.	.	.	.	.	.	.
8AA/J	16.cc#\	16.ee\	.	.	.	.	.	.	.	.
.	32dd\JJk	32ff#\JJk	.	.	.	.	.	.	.	.
*Xtremolo	*	*	*	*	*	*	*	*	*	*
=35	=35	=35	=35	=35	=35	=35	=35	=35	=35	=35
*	*	*	*	*ij	*	*ij	*	*	*	*
!	!LO:TUP:a:problem=klamra łukowa	!	!	!	!	!	!	!	!	!
8C#X/L	24ee\LL	24gg\LL	4c#X\	po-	4e\	Po-	4gg\	po-	.	.
.	24dd\	24ff#\	.	.	.	.	.	.	.	.
.	24ee\JJ	24gg\JJ	.	.	.	.	.	.	.	.
!	!LO:TUP:a:problem=klamra łukowa	!	!	!	!	!	!	!	!	!
8C#/	24ee\LL	24gg\LL	.	.	.	.	.	.	.	.
.	24dd\	24ff#\	.	.	.	.	.	.	.	.
.	24ee\JJ	24gg\JJ	.	.	.	.	.	.	.	.
!	!LO:TUP:a:problem=klamra łukowa	!	!	!	!	!	!	!	!	!
8AA/	24gg\LL	24eee\LL	8A\	-pu-	8f#\	-pu-	8aa\	-pu-	.	.
.	24ff#\	24ddd\	.	.	.	.	.	.	.	.
.	24ee\JJ	24ccc#\JJ	.	.	.	.	.	.	.	.
!	!LO:TUP:a:problem=klamra łukowa	!	!	!	!	!	!	!	!	!
8AA/J	24gg\LL	24bb\LL	8A\	-li	8e\	-li	8gg\	-li	.	.
.	24ff#\	24aa\	.	.	.	.	.	.	.	.
.	24ee\JJ	24gg\JJ	.	.	.	.	.	.	.	.
*	*	*	*	*Xij	*	*Xij	*	*	*	*
!	!LO:LB:g=original	!	!	!	!	!	!	!	!	!
!LO:TX:a:t=P:problem=mixed beam	!	!	!	!	!	!	!	!	!	!
8D/L	4ee\	4gg\	4d\	su-	4e\	su-	4gg\	su-	.	.
16d\L	.	.	.	.	.	.	.	.	.	.
16A\JJ	.	.	.	.	.	.	.	.	.	.
8D/L	4dd\	4ff#\	4D\	-i	4d\	-i	4ff#\	-i	.	.
8D/J	.	.	.	.	.	.	.	.	.	.
!	!	!LO:LB:g=original	!	!	!	!	!	!	!	!
=36	=36	=36	=36	=36	=36	=36	=36	=36	=36	=36
*tremolo	*	*	*	*	*	*	*	*	*	*
8D\L	16dd\LL	16ff#\LL	8D\	qui	8A\	Qui	8ff#\	Qui	.	.
.	16a\	16dd\	.	.	.	.	.	.	.	.
8D\	16a\	16dd\	16D\	ha-	16A\	ha-	16ff#\	a-	.	.
.	16dd\JJ	16ff#\JJ	16D\	-bi-	16A\	-bi-	16ff#\	-bi-	.	.
8D\	16dd\LL	16ff#\LL	8D\	-ta-	8A\	-ta-	8ff#\	-ta-	.	.
.	16ff#\JJ	16aa\JJ	.	.	.	.	.	.	.	.
!	!LO:TUP:a:problem=klamra łukowa	!	!	!	!	!	!	!	!	!
8D\J	24aa\LL	24cccn\LL	8D\	-re	8A\	-re	8ff#\	-re	.	.
.	24gg\	24bb\	.	.	.	.	.	.	.	.
.	24ff#\JJ	24aa\JJ	.	.	.	.	.	.	.	.
*Xtremolo	*	*	*	*	*	*	*	*	*	*
!	!	!	!	!	!LO:LB:g=original	!	!	!	!	!
*	*Xtuplet	*	*	*	*	*	*	*	*	*
8G\L	24gg\LL	24bb\LL	8G\	fa-	8B\	fe-	8gg\	fe-	.	.
.	24aa\	24ccc\	.	.	.	.	.	.	.	.
.	24bb\JJ	24ddd\JJ	.	.	.	.	.	.	.	.
16G\L	8bb\	8ddd\	8G\	-cit	8B\	-cit	8gg\	-cit	.	.
16D\JJ	.	.	.	.	.	.	.	.	.	.
!	!	!	!LO:LB:g=original	!	!	!	!	!	!	!
8BB/L	16bb\LL	16ddd\LL	16G\	ste-	16B\	ste-	16gg\	ste-	.	.
.	16dd\	16ccc\	16G\	-ri-	16B\	-ri-	16gg\	-ri-	.	.
8GG/J	16ccn\	16aa\	16G\	-lem	16B\	-lem	16gg\	-lem	.	.
.	16b\JJ	16gg\JJ	16G\	in	16B\	in	16gg\	in	.	.
=37	=37	=37	=37	=37	=37	=37	=37	=37	=37	=37
8D\L	16dd\LL	16ff#\LL	8D\	do-	8A\	Do-	8ff#\	Do-	.	.
.	16a\	16dd\	.	.	.	.	.	.	.	.
8D\	16a\	16dd\	8D\	-mo	8A\	-mo	8ff#\	-mo	.	.
.	16dd\JJ	16ff#\JJ	.	.	.	.	.	.	.	.
8D\	16dd\LL	16ff#\LL	8D\	ma-	8A\	ma-	8ff#\	ma-	.	.
.	16ff#\JJ	16aa\JJ	.	.	.	.	.	.	.	.
8D\J	24aa\LL	24cccn\LL	8D\	-trem	8A\	-trem	8ff#\	-trem	.	.
.	24gg\	24bb\	.	.	.	.	.	.	.	.
.	24ff#\JJ	24aa\JJ	.	.	.	.	.	.	.	.
8GG/L	24gg\LL	24bb\LL	8G\	fi-	8B\	fi-	8gg\	fi-	.	.
.	24aa\	24ccc\	.	.	.	.	.	.	.	.
.	24bb\JJ	24ddd\JJ	.	.	.	.	.	.	.	.
*	*tuplet	*	*	*	*	*	*	*	*	*
!	!	!LO:SIC:s=8ffn:v	!	!	!LO:SIC:s=8cn:v	!	!	!	!	!
8GG/	8dd\	8ff#\	8G\	-li-	8c#\	-li-	8dd\	-li-	.	.
!	!LO:TUP:a:problem=klamra łukowa	!	!	!	!	!	!	!	!	!
8GG/	24ee\LL	24gg\LL	8G\	-o-	8B\	-o-	8ee\	-o-	.	.
!	!LO:SIC:s=24ffn:v	!	!	!	!	!	!	!	!	!
.	24ff#\	24aa\	.	.	.	.	.	.	.	.
.	24gg\JJ	24bb\JJ	.	.	.	.	.	.	.	.
!	!	!	!	!	!LO:SIC:s=8B:v	!	!LO:SIC:s=8dd:v	!	!	!
8BB/J	8b\	8dd\	8B\	-rum	8A\	-rum	8cc#\	-rum	.	.
*	*	*tuplet	*	*	*	*	*	*	*	*
=38	=38	=38	=38	=38	=38	=38	=38	=38	=38	=38
!LO:TX:a:t=P:problem=mixed beam	!LO:SIC:s=16ccn:v	!	!LO:SIC:s=8cn:v	!	!	!	!	!	!	!
8Cn\L	16cc#\LL	16ee\LL	8c#\L	le-	16cn\LL	Le-	16ee\LL	Le-	00r	00r
.	16ee\	16ccn\	.	.	16e\	.	16ccn\	.	.	.
8E\	16dd\	16b\	8E\J	.	16d\	.	16b\	.	.	.
.	16ccn\JJ	16a\JJ	.	.	16c\JJ	.	16a\JJ	.	.	.
8D\	8b\L	8g/L	4D\	-tan-	8B\	-tan-	8g\L	-tan-	.	.
8DD/J	8a\J	8a/J	.	.	8A\	-tem	8a\J	.	.	.
!	!	!	!	!	!	!	!LO:LB:g=original	!	!	!
*tremolo	*	*	*	*	*	*	*	*	*	*
8GG/L	8B/L	8g/L	8A\	-tem	2r	.	8g\	-tem	.	.
8GG/	16g/L	16b/L	4r	.	.	.	8dd\	Glo-	.	.
.	16b/JJ	16dd/JJ	.	.	.	.	.	.	.	.
8GG/	8a/L	8ccn\L	.	.	.	.	8ccn\	-ri-	.	.
8GG/J	8g/J	8b\J	8r	.	.	.	8b\	-a	.	.
=39	=39	=39	=39	=39	=39	=39	=39	=39	=39	=39
!	!	!	!	!	!LO:TX:a:t=2	!	!	!	!	!
8D\L	8.f#/L	8.a/L	0r	.	0r	.	8.a\L	Pa-	.	.
8D\	.	.	.	.	.	.	.	.	.	.
.	16e/Jk	16g#X/Jk	.	.	.	.	16g#X\Jk	.	.	.
.	8qqf#/	.	.	.	.	.	8qqg#/	.	.	.
8D\	4f#/	4a/	.	.	.	.	4a\	-tri	.	.
8D\J	.	.	.	.	.	.	.	.	.	.
*Xtremolo	*	*	*	*	*	*	*	*	*	*
!	!	!	!	!	!	!	!LO:SIC:s=4ccn:v	!	!	!
8F#\L	4a/	4ccn/	.	.	.	.	4cc#\	Glo-	.	.
8F#\	.	.	.	.	.	.	.	.	.	.
8D\	8g/L	8b/L	.	.	.	.	8b\	-ri-	.	.
8D\J	8f#/J	8a/J	.	.	.	.	8a\	-a	.	.
=40	=40	=40	=40	=40	=40	=40	=40	=40	=40	=40
!LO:TX:a:t=P:problem=mixed beam	!	!	!	!	!	!	!	!	!	!
8G\L	16g\LL	16b\LL	.	.	.	.	16b\LL	fi-	.	.
.	16b\	16dd\	.	.	.	.	16dd\JJ	.	.	.
!	!	!LO:SIC:s=16ccn:v	!	!	!	!	!	!	!	!
8GG/	16a\	16cc#\	.	.	.	.	16ccn\LL	-li-	.	.
.	16ccn\JJ	16ee\JJ	.	.	.	.	16ee\JJ	.	.	.
8BB/	8b\L	8dd\L	.	.	.	.	4dd\	-o	.	.
8GG/J	8gg\J	8bb\J	.	.	.	.	.	.	.	.
!	!	!LO:SIC:s=4ccn:v	!	!	!	!	!	!	!	!
8D\L	4a/	4cc#\	.	.	.	.	4cc\	glo-	.	.
8D\	.	.	.	.	.	.	.	.	.	.
!	!LO:SIC:s=8a:v	!	!	!	!	!	!	!	!	!
8F#\	8g/L	8b\L	.	.	.	.	8b\	-ri-	.	.
8D\J	8f#/J	8a\J	.	.	.	.	8a\	-a	.	.
=41	=41	=41	=41	=41	=41	=41	=41	=41	=41	=41
!	!	!	!	!	!LO:TX:a:t=P:problem=pominięty fragment	!	!	!	!	!
8G\L	16g/LL	8b\L	1r	.	1ryy	.	4b\	et	.	.
.	16g/	.	.	.	.	.	.	.	.	.
8G\	16e/	8b\	.	.	.	.	.	.	.	.
.	16e/JJ	.	.	.	.	.	.	.	.	.
8E\	16g/LL	8cc#\	.	.	.	.	4cc#\	ſpi-	.	.
.	16g/	.	.	.	.	.	.	.	.	.
8E\J	16e/	8cc#\J	.	.	.	.	.	.	.	.
.	16e/JJ	.	.	.	.	.	.	.	.	.
!	!LO:LB:g=original	!LO:LB:g=original	!	!	!	!	!	!	!	!
!	!LO:TX:a:t=P:problem=mixed beam	!	!	!	!	!	!	!	!	!
8F#\L	8f#/L	8dd\L	.	.	.	.	8dd\L	-ri-	.	.
8F#\	8gg\J	8bb\J	.	.	.	.	8bb\J	.	.	.
8G\	16ff#\LL	16aa\LL	.	.	.	.	16aa\LL	-tu-	.	.
.	16ee\	16gg\	.	.	.	.	16gg\JJ	.	.	.
8G\J	16dd\	16ff#\	.	.	.	.	16ff#\LL	-i	.	.
.	16cc#X\JJ	16ee\JJ	.	.	.	.	16ee\JJ	.	.	.
=42	=42	=42	=42	=42	=42	=42	=42	=42	=42	=42
!LO:TX:a:t=P:problem=mixed beam	!LO:N:vis=16	!	!	!	!	!	!	!	!	!
8A\L	8dd\L	8ff#\L	2r	.	2r	.	(>4dd\	ſan-	2r	2r
!	!LO:N:vis=16	!	!	!	!	!	!	!	!	!
8A\	8dd\	8ff#\	.	.	.	.	.	.	.	.
!	!LO:N:vis=16	!	!	!	!	!	!	!	!	!
8AA/	8cc#\	8ee\	.	.	.	.	4ee\)	.	.	.
!	!LO:N:vis=16	!	!	!	!	!	!	!	!	!
8AA/J	8b\J	8ee\J	.	.	.	.	.	.	.	.
!LO:LB:g=original	!	!	!	!	!	!	!	!	!	!
4D\	4ff# 4a 4d/	4ff# 4a 4d/	8r	.	8r	.	8dd\	-cto	8r	8r
.	.	.	8D\	ſi-	8d\	ſi-	8ff#\	ſi-	8dd\	8ff#\
4A\	4ee 4cc# 4a\	4ee 4a/	4A\	-cut	4c#\	-cut	4ee\	-cut	4a/	4ee\
=43	=43	=43	=43	=43	=43	=43	=43	=43	=43	=43
!LO:TX:a:t=P:problem=mixed beam	!	!	!	!	!	!	!	!	!	!
8D\L	8ff# 8a 8d/	8ff# 8a 8d/	8d\	e-	8d\	e-	8ff#\	e-	8dd\	8ff#\
8D\	4ff#\	4aa\	8d\	-rat	8f#\	-rat	8aa\	-rat	4ff#\	4aa\
8A\	.	.	8A\	in	8f#\	in	8aa\	in	.	.
8AA/J	8ee\	8gg\	8AA/	prin-	8e\	prin-	8gg\	prin-	8ee\	8gg\
!	!	!	!	!	!	!	!	!	!LO:LB:g=original	!
8D\L	4dd\	4ff#\	8D\L	-ci-	4d\	-ci-	4ff#\	-ci-	4dd\	4ff#\
8F#\	.	.	8F#\	.	.	.	.	.	.	.
8G\	4cc#\	4ee\	8G\	.	4c#\	-pi-	4ee\	-pi-	4a/	4ee\
8A\J	.	.	8A\J	.	.	.	.	.	.	.
!	!	!	!	!	!	!	!	!	!	!LO:LB:g=original
=44	=44	=44	=44	=44	=44	=44	=44	=44	=44	=44
*	*^	*	*	*	*	*	*	*	*	*
!LO:TX:a:t=P:problem=mixed beam	!	!	!	!	!	!	!	!	!	!	!
16D/LL	16dd\LL	4ryy	16ff#\LL	4D\	-pio	4d\	-o	4ff#\	-o	8dd\L	8ff#\L
16d\	16dd\	.	16dd\	.	.	.	.	.	.	.	.
16c#\	16cc#\	.	16cc#\	.	.	.	.	.	.	16dd\L	16ff#\L
16B\JJ	16b\JJ	.	16b\JJ	.	.	.	.	.	.	16dd\JJ	16ff#\JJ
16A\LL	16a\LL	4ryy	16a/LL	4.r	.	8r	.	4r	.	8dd\L	8ff#\L
16G\	16g\	.	16g/	.	.	.	.	.	.	.	.
16F#\	16f#\	.	16f#/	.	.	8c#\	et	.	.	8dd\J	8ff#\J
16E\JJ	16e\JJ	.	16e/JJ	.	.	.	.	.	.	.	.
!LO:TX:a:t=P:problem=mixed beam	!LO:TX:a:t=P:problem=mixed beam	!	!LO:TX:a:t=P:problem=mixed beam	!	!	!	!	!	!	!	!
8D\L	8d/L	4ryy	8d/L	.	.	4c#\	nunc	8r	.	4dd\	4ff#\
8D\	8dd\J	.	8ff#\J	8D\	et	.	.	8ff#\	et	.	.
8A\	4ee 4cc#/	4a\	4ee\	4A\	nunc	4c#\	et	4ee\	nunc	4a/	4ee\
8AA/J	.	.	.	.	.	.	.	.	.	.	.
!	!	!	!LO:LB:g=original	!	!	!LO:LB:g=original	!	!LO:LB:g=original	!	!	!
*	*v	*v	*	*	*	*	*	*	*	*	*
=45	=45	=45	=45	=45	=45	=45	=45	=45	=45	=45
!LO:TX:a:t=P:problem=mixed beam	!	!	!	!	!	!	!	!	!	!
8D\L	8ff# 8a 8d/	8ff#\	8D\	et	8d\	ſem-	8ff#\	et	8dd\	8ff#\
8D\	4ff#\	4aa\	8D\	in	4f#\	.	4aa\	nunc	4ff#\	4aa\
!	!	!	!LO:TX:a:t=P:problem=mixed beam	!	!	!	!	!	!	!
8A\	.	.	8A\L	et	.	.	.	.	.	.
8AA/J	8ee\	8gg\	8AA/J	.	8e\	-per	8gg\	et	8ee\	8gg\
8D\L	4dd\	4ff#\	8D\L	ſem-	4d\	et	4ff#\	ſem-	4dd\	4ff#\
8F#\	.	.	8F#\	.	.	.	.	.	.	.
8G\	4cc#\	4ee\	8G\	.	4c#\	in	4ee\	-per	4a/	4ee\
8A\J	.	.	8A\J	.	.	.	.	.	.	.
=46	=46	=46	=46	=46	=46	=46	=46	=46	=46	=46
!LO:TX:a:t=P:problem=mixed beam	!LO:TX:a:t=P:problem=mixed beam	!LO:TX:a:t=P:problem=mixed beam	!LO:TX:a:t=P:problem=mixed beam	!	!	!	!	!	!	!
8d\L	16dd\LL	16dd\LL	8.d\L	per	4d\	ſe-	4ff#\	et	4dd\	4ff#\
.	16d/	16d/	.	.	.	.	.	.	.	.
8D/J	16d/	16d/	.	.	.	.	.	.	.	.
.	16d/JJ	16d/JJ	16D/Jk	.	.	.	.	.	.	.
*	*	*tremolo	*	*	*	*	*	*	*	*
8F#\L	16dd\LL	16ff#\LL	8F#\L	in	4d\	-cu-	4ff#\	in	4dd\	4ff#\
.	16dd\	16ff#\	.	.	.	.	.	.	.	.
8G\J	16dd\	16ff#\	8G\J	.	.	.	.	.	.	.
.	16dd\JJ	16ff#\JJ	.	.	.	.	.	.	.	.
8A\L	16cc#\LL	16ee\LL	8A\L	ſae-	4c#\	-la	4ee\	ſe-	4a/	4ee\
.	16cc#\	16ee\	.	.	.	.	.	.	.	.
8B\	16cc#\	16ee\	8A\J	.	.	.	.	.	.	.
.	16cc#\JJ	16ee\JJ	.	.	.	.	.	.	.	.
8c#\	16ee\LL	16gg\LL	8B\L	-cu-	8e\	ſe-	8gg\	-cu-	4ee\	4gg\
.	16ee\	16gg\	.	.	.	.	.	.	.	.
8A\J	16ee\	16gg\	8c#\J	.	8e\	-cu-	8gg\	-la	.	.
.	16ee\JJ	16gg\JJ	.	.	.	.	.	.	.	.
*	*	*Xtremolo	*	*	*	*	*	*	*	*
=47	=47	=47	=47	=47	=47	=47	=47	=47	=47	=47
!LO:TX:a:t=P:problem=mixed beam	!LO:TX:a:t=P:problem=mixed beam	!LO:TX:a:t=P:problem=mixed beam	!LO:TX:a:t=P:problem=mixed beam	!	!	!	!	!	!	!
8d\L	16dd\LL	16ff#\LL	8d\L	-la	4d\	-lo-	4ff#\	ſe-	4dd\	4ff#\
.	16d/	16d/	.	.	.	.	.	.	.	.
8D/	16d/	16d/	8D/J	.	.	.	.	.	.	.
.	16d/JJ	16d/JJ	.	.	.	.	.	.	.	.
*	*	*tremolo	*	*	*	*	*	*	*	*
8F#/	16d/LL	16f#/LL	8F#\L	ſae-	4d\	-rum	4ff#\	-cu-	4dd\	4ff#\
.	16d/	16f#/	.	.	.	.	.	.	.	.
8G/J	16d/	16f#/	8G\J	.	.	.	.	.	.	.
.	16d/JJ	16f#/JJ	.	.	.	.	.	.	.	.
*	*tremolo	*	*	*	*	*	*	*	*	*
8A\L	16c#/LL	16e/LL	8A\L	-cu-	4c#\	a-	4ee\	-lo-	4a/	4ee\
.	16c#/	16e/	.	.	.	.	.	.	.	.
8A\	16c#/	16e/	8A\J	.	.	.	.	.	.	.
.	16c#/JJ	16e/JJ	.	.	.	.	.	.	.	.
8B\	16e/LL	16g/LL	8B\L	-lo-	4e\	-men	4gg\	-rum	4ee\	4gg\
.	16e/	16g/	.	.	.	.	.	.	.	.
8c#\J	16e/	16g/	8c#\J	.	.	.	.	.	.	.
.	16e/JJ	16g/JJ	.	.	.	.	.	.	.	.
*	*Xtremolo	*Xtremolo	*	*	*	*	*	*	*	*
=48	=48	=48	=48	=48	=48	=48	=48	=48	=48	=48
!LO:TX:a:t=P:problem=mixed beam	!LO:TX:a:t=P:problem=mixed beam	!LO:TX:a:t=P:problem=mixed beam	!LO:TX:a:t=P:problem=mixed beam	!	!	!	!	!	!	!
8d\L	8d/L	8f#/L	8d\L	-rum	4d\	a-	4ff#\	a-	4dd\	4ff#\
8D/	8ff#\	8ddd\	8D/J	.	.	.	.	.	.	.
!	!	!	!LO:TX:a:t=P:problem=mixed beam	!	!	!	!	!	!	!
8A\	8cc#\	8ee\	8A\L	a-	(>4c#\	-men	4ee\	.	8a/L	8ee\L
8AA/J	8ee\J	8ccc#\J	8AA/J	.	.	.	.	.	8a/J	8ee\J
4D/	4ff# 4a 4d/	4ddd\	4D\	-men	4d\)	.	4ff#\	-men	4dd\	4ff#\
4r	4r	4r	4r	.	4r	.	4r	.	4r	4r
!	!	!	!	!	!	!	!	!	!	!LO:TX:a:Bi:t=Laudate Dominum Vertat allo
==	==	==	==	==	==	==	==	==	==	==
*-	*-	*-	*-	*-	*-	*-	*-	*-	*-	*-
!!title: @{OTL};
!!!RDF**kern: > = above
!!!RDF**kern: < = below
!!!EED: Wojciech Jakubiak-Danek
!!!EEV: 2020-10-18
!!!URL-scan: http://bc.bdsandomierz.pl/dlibra/publication/1258/edition/1226/content
!!!ONB-nifc: UWAGA: części Vesperae: Dixit Dominus, Confitebor, Beatus vir, Laudate pueri, Laudate Dominum, Magnificat
!!!ENC: Krzysztof Stępień
!!!END: 2020-05-22
